Sources/FrostedUI/Resources/Icons.xcassets/micOff12.imageset/mic-off-12.svg

<svg width="12" height="12" viewBox="0 0 12 12" fill="none" xmlns="http://www.w3.org/2000/svg" data-fui-icon="true">
  <g clip-path="url(#clip0_5204_705)">
    <path
      d="M0.782227 0.969727C1.07512 0.676835 1.54988 0.676835 1.84277 0.969727L3.17676 2.30371C3.18473 2.31168 3.19428 2.31801 3.20312 2.32422L4.56934 3.69043C4.57567 3.69954 4.58188 3.70882 4.58984 3.7168L7.03613 6.16309C7.04456 6.17146 7.05404 6.17815 7.06348 6.18457L8.3623 7.4834C8.36687 7.48924 8.36965 7.49657 8.375 7.50195L8.9375 8.06445C8.9471 8.07405 8.95783 8.08277 8.96875 8.08984L10.2559 9.37695C10.2604 9.38279 10.2632 9.39013 10.2686 9.39551L11.2178 10.3447C11.5106 10.6376 11.5107 11.1124 11.2178 11.4053C10.9249 11.6981 10.4501 11.6981 10.1572 11.4053L9.08691 10.335C9.0257 10.2737 8.93059 10.2626 8.85547 10.3057C8.27135 10.6403 7.61724 10.8671 6.91992 10.9561C6.82398 10.9683 6.75 11.0488 6.75 11.1455V11.25C6.74997 11.6642 6.41419 12 6 12C5.58581 12 5.25003 11.6642 5.25 11.25V11.1455C5.25 11.0488 5.17602 10.9683 5.08008 10.9561C2.49701 10.6271 0.500028 8.42246 0.5 5.75C0.500001 5.33579 0.835787 5 1.25 5C1.66421 5 2 5.33579 2 5.75C2.00003 7.82104 3.67895 9.5 5.75 9.5H6.25C6.74038 9.5 7.20851 9.40489 7.6377 9.2334C7.75736 9.18545 7.78351 9.03165 7.69238 8.94043L7.06641 8.31445C7.0157 8.26381 6.94063 8.24674 6.87207 8.26758C6.5961 8.3521 6.30357 8.40039 6 8.40039C4.39505 8.40039 3.08444 7.13963 3.00391 5.55469L3 5.40039V4.32617C3 4.27655 2.98033 4.2285 2.94531 4.19336L0.782227 2.03027C0.489349 1.73739 0.489377 1.26262 0.782227 0.969727ZM10.75 5C11.1642 5 11.5 5.33579 11.5 5.75C11.5 6.55379 11.3184 7.31461 10.9951 7.99512L9.83594 6.83594C9.94038 6.49202 9.99999 6.12817 10 5.75C10 5.33579 10.3358 5 10.75 5ZM6 0.900391C7.65685 0.900391 9 2.24354 9 3.90039V5.40039C8.99997 5.58744 8.98029 5.76991 8.94727 5.94727L7.5 4.5V3.90039C7.5 3.07196 6.82843 2.40039 6 2.40039C5.82067 2.40039 5.64862 2.43157 5.48926 2.48926L4.37695 1.37695C4.84484 1.07545 5.40192 0.900391 6 0.900391Z"
      fill="currentColor"
    />
  </g>
  <defs>
    <clipPath id="clip0_5204_705"><path fill="currentColor" d="M0 0H12V12H0z" /></clipPath>
  </defs>
</svg>

<svg xmlns="http://www.w3.org/2000/svg" width="12" height="12" fill="none" data-fui-icon="true" viewBox="0 0 12 12"><g clip-path="url(#a)"><path fill="currentColor" d="M.782.97a.75.75 0 0 1 1.06 0l1.335 1.334q.012.011.026.02L4.57 3.69l.02.027 2.447 2.446.027.022 1.3 1.298q.005.01.012.019l.563.562q.015.015.03.026l1.288 1.287q.005.01.013.019l.949.949a.75.75 0 0 1-1.06 1.06l-1.071-1.07a.19.19 0 0 0-.232-.03 5.2 5.2 0 0 1-1.935.651.193.193 0 0 0-.17.19v.104a.75.75 0 0 1-1.5 0v-.104a.193.193 0 0 0-.17-.19A5.25 5.25 0 0 1 .5 5.75a.75.75 0 0 1 1.5 0A3.75 3.75 0 0 0 5.75 9.5h.5c.49 0 .959-.095 1.388-.267.12-.048.146-.201.054-.293l-.626-.626a.2.2 0 0 0-.194-.046A3 3 0 0 1 6 8.4a3 3 0 0 1-2.996-2.845L3 5.4V4.326c0-.05-.02-.097-.055-.133L.782 2.03a.75.75 0 0 1 0-1.06M10.75 5a.75.75 0 0 1 .75.75c0 .804-.182 1.565-.505 2.245l-1.16-1.16A3.7 3.7 0 0 0 10 5.75a.75.75 0 0 1 .75-.75M6 .9a3 3 0 0 1 3 3v1.5q-.002.281-.053.547L7.5 4.5v-.6a1.5 1.5 0 0 0-2.01-1.41L4.376 1.376A3 3 0 0 1 6 .9"/></g><defs><clipPath id="a"><path fill="currentColor" d="M0 0h12v12H0z"/></clipPath></defs></svg>
